X:1
T:James Gibb editions
T:Let us all in concert sing - Barnby
%%score [ ( 1 2 ) ( 3 4 ) ]
L:1/8
Q:1/4=120
M:4/4
K:Eb
V:1 treble nm="Midi_74"
V:2 treble 
V:3 bass nm="Midi_74"
V:4 bass 
V:1
!f!"^Henry Alford\n(1810-71)""^Let us all in concert sing" B8 | c2 c2 B4 || %2
w: Let~us~all~in|con- cert sing|
 (B4 c2)"^Joseph Barnby\n(1838-96)" =A2 | B4 G4 || B8 |"^Irregular" c2 c2 B4 ||!ff! B8 | %7
w: Al\- * le-|lu- ia!|Let~the~people|e- choing ring,|Praising~the~E-|
 _d2 d2 c4 || (E4 F2) G2 | A8 | G8 |] %11
w: ter- nal King,|Al\- * le-||ia.|
V:2
 E8 | C2 D2 E4 || E6 E2 | D4 B,4 || E8 | E2 E2 D4 || E8- | F2 F2 E4 || (E4 _D2) D2 | %9
w: |||||||||
 (C4 !courtesy!=D4) | E8 |] %11
w: lu\- *||
V:3
!f! G,8 | E,2 F,2 G,4 || G,6 F,2 | F,4 G,4 || G,8 | G,2 G,2 G,4 || %6
"^2. Sing, ye choirs a- | bove the skies, Alleluia.\nHarp, ye blessed | companies\nThrough the fields of | Paradise. Alleluia.\n\n3. Sound, ye glittering | stars of light. Alleluia.\nClouds in course, and | birds in flight,\nThunders deep, and | lightnings bright. Alleluia.\n\n4. Floods and billows, | snow and shower. Alleluia.\nSkies that glow, and | storms that lower,\nFrost and sunbeam, | tree and flower. Alleluia.\n\n5. Beasts of earth, make | answer deep. Alleluia.\nShout forth, every | mountain steep,\nAnd ye vales be- | neath that sleep. Alleluia.\n\n6. Cry, thou ocean, | jubilant. Alleluia.\nevery isle and | continent,\nEcho onward | resonant. Alleluia.\n\n" G,8 | %7
 A,2 A,2 A,4 || %8
 (G,4 B,2)"^7. Let the sons of | men upraise. Alleluia.\nJoining with ex- | ultant lays \nIn the great Cre- | ator's praise. Alleluia.\n\n8. This the strain the | Father loves. Alleluia.\nAs its chorus | round Him moves.\nThis, which Christ Him- | self approves. Alleluia.\n\n9. Therefore, brethren, | sing with joy. Alleluia.\nEver in your | glad employ,\nAnswer, every | maid and boy. Alleluia.\n\n10. Now by all be | honour done. Alleluia.\nTo the Father | and the Son,\nAnd the Spirit, | Three in One. Alleluia." E,2 | %9
 E,4 F,4 | [E,B,]8 |] %11
V:4
 E,8 | A,,2 A,,2 E,4 || (E,4 C,2) F,2 | B,,4 E,4 || E,8 | .C,2 C,2 G,4 || E,8 | _D,2 D,2 A,,4 || %8
 (C,4 B,,2) B,,2 | [A,,C]8 | G,8 |] %11

